Origami/22x22/apps/VVVVVV.svg

<svg width="22" height="22" version="1" xmlns="http://www.w3.org/2000/svg">
 <rect transform="matrix(0,-1,-1,0,0,0)" x="-21.5" y="-21" width="20" height="20" rx="1" ry="1" style="opacity:.2"/>
 <rect transform="matrix(0,-1,-1,0,0,0)" x="-21" y="-21" width="20" height="20" rx="1" ry="1" style="fill:#407494"/>
 <path d="m2 1c-0.554 0-1 0.446-1 1v0.5c0-0.554 0.446-1 1-1h18c0.554 0 1 0.446 1 1v-0.5c0-0.554-0.446-1-1-1z" style="fill:#ffffff;opacity:.1"/>
 <path d="m16 4.5v1h1v10h-1v1h-3v1h3v1h-10v-1h3v-1h-3v-1h-1v-10h1v-1z" style="opacity:.2"/>
 <path d="m16 4v1h1v10h-1v1h-3v1h3v1h-10v-1h3v-1h-3v-1h-1v-10h1v-1z" style="fill:#91c2d0"/>
 <path d="m14 6.5v3h-3v-3zm-5 0v3h-3v-3zm4 6v1h-1v1h-5v-1h-1v-1z" style="opacity:.2"/>
 <path d="m14 6v3h-3v-3zm-5 0v3h-3v-3zm4 6v1h-1v1h-5v-1h-1v-1z" style="fill:#404040"/>
 <path d="m6 4v0.5h10v-0.5zm-1 1v0.5h1v-0.5zm11 0v0.5h1v-0.5zm-10 12v0.5h3v-0.5zm7 0v0.5h3v-0.5z" style="fill:#ffffff;opacity:.1"/>
</svg>

<svg xmlns="http://www.w3.org/2000/svg" width="22" height="22" version="1">
 <rect style="opacity:0.2" width="20" height="20" x="-21.5" y="-21" rx="1" ry="1" transform="matrix(0,-1,-1,0,0,0)"/>
 <rect style="fill:#407494" width="20" height="20" x="-21" y="-21" rx="1" ry="1" transform="matrix(0,-1,-1,0,0,0)"/>
 <path style="opacity:0.1;fill:#ffffff" d="M 2,1 C 1.446,1 1,1.446 1,2 v 0.5 c 0,-0.554 0.446,-1 1,-1 h 18 c 0.554,0 1,0.446 1,1 V 2 C 21,1.446 20.554,1 20,1 Z"/>
 <path style="opacity:0.2" d="m 16,4.5 v 1 h 1 v 10 h -1 v 1 h -3 v 1 h 3 v 1 H 6 v -1 h 3 v -1 H 6 v -1 H 5 v -10 h 1 v -1 z"/>
 <path style="fill:#91c2d0" d="m 16,4 v 1 h 1 v 10 h -1 v 1 h -3 v 1 h 3 v 1 H 6 V 17 H 9 V 16 H 6 V 15 H 5 V 5 H 6 V 4 Z"/>
 <path style="opacity:0.2" d="m 14,6.5 v 3 h -3 v -3 z m -5,0 v 3 H 6 v -3 z m 4,6 v 1 h -1 v 1 H 7 v -1 H 6 v -1 z"/>
 <path style="fill:#404040" d="M 14,6 V 9 H 11 V 6 Z M 9,6 V 9 H 6 V 6 Z m 4,6 v 1 h -1 v 1 H 7 V 13 H 6 v -1 z"/>
 <path style="opacity:0.1;fill:#ffffff" d="M 6,4 V 4.5 H 16 V 4 Z M 5,5 V 5.5 H 6 V 5 Z m 11,0 v 0.5 h 1 V 5 Z M 6,17 v 0.5 H 9 V 17 Z m 7,0 v 0.5 h 3 V 17 Z"/>
</svg>
